img/icon-back.svg

<svg height="40" viewBox="0 0 40 40" width="40" xmlns="http://www.w3.org/2000/svg"><g fill="none"><path d="m20 40c11.0450098 0 20-8.9549902 20-20 0-11.04500978-8.962818-20-20-20s-20 8.95499022-20 20c0 11.0450098 8.95499022 20 20 20" fill="#ede9e6"/><path d="m28 16.9393346h-18.47358121l3.88258321-4.3522505c.2504892-.2818003.2270058-.7123287-.0547946-.9706457-.2818004-.2504893-.7123287-.2270059-.9706458.0547945l-4.37573381 4.9001957c-.53228963.5949119-.53228963 1.4951076 0 2.0978473l4.37573381 4.9001957c.1330725.148728.3209394.2270059.5088063.2270059.1643836 0 .3287671-.0547945.4540117-.1722114.2818004-.2504892.3052838-.6888454.0547946-.9706457l-3.8825832-4.3522505h18.4735812c2.9589041 0 5.369863 2.4109589 5.369863 5.369863s-2.4031311 5.369863-5.3620352 5.369863h-3.2641879c-.3757338 0-.6888454.3052837-.6888454.6888454 0 .3757338.3052838.6888454.6888454.6888454h3.2641879c3.7181996 0 6.739726-3.0215264 6.739726-6.739726-.0078278-3.7181996-3.0293542-6.7397261-6.739726-6.7397261z" fill="#000" stroke="#000" stroke-width="2"/></g></svg>

<?xml version="1.0" encoding="UTF-8"?>
<svg width="40px" height="40px" viewBox="0 0 40 40" version="1.1" xmlns="http://www.w3.org/2000/svg" xmlns:xlink="http://www.w3.org/1999/xlink">
    <!-- Generator: Sketch 43.1 (39012) - http://www.bohemiancoding.com/sketch -->
    <title>icon-back</title>
    <desc>Created with Sketch.</desc>
    <defs></defs>
    <g id="Chat-View" stroke="none" stroke-width="1" fill="none" fill-rule="evenodd">
        <g id="Mobile-Portrait-title-text-avatars-smaller" transform="translate(-20.000000, -25.000000)" fill-rule="nonzero">
            <g id="icon-back" transform="translate(20.000000, 25.000000)">
                <path d="M20,40 C31.0450098,40 40,31.0450098 40,20 C40,8.95499022 31.037182,0 20,0 C8.962818,0 0,8.95499022 0,20 C0,31.0450098 8.95499022,40 20,40" id="Shape" fill="#EDE9E6"></path>
                <path d="M28,16.9393346 L9.52641879,16.9393346 L13.409002,12.5870841 C13.6594912,12.3052838 13.6360078,11.8747554 13.3542074,11.6164384 C13.072407,11.3659491 12.6418787,11.3894325 12.3835616,11.6712329 L8.00782779,16.5714286 C7.47553816,17.1663405 7.47553816,18.0665362 8.00782779,18.6692759 L12.3835616,23.5694716 C12.5166341,23.7181996 12.704501,23.7964775 12.8923679,23.7964775 C13.0567515,23.7964775 13.221135,23.741683 13.3463796,23.6242661 C13.62818,23.3737769 13.6516634,22.9354207 13.4011742,22.6536204 L9.518591,18.3013699 L27.9921722,18.3013699 C30.9510763,18.3013699 33.3620352,20.7123288 33.3620352,23.6712329 C33.3620352,26.630137 30.9589041,29.0410959 28,29.0410959 L24.7358121,29.0410959 C24.3600783,29.0410959 24.0469667,29.3463796 24.0469667,29.7299413 C24.0469667,30.1056751 24.3522505,30.4187867 24.7358121,30.4187867 L28,30.4187867 C31.7181996,30.4187867 34.739726,27.3972603 34.739726,23.6790607 C34.7318982,19.9608611 31.7103718,16.9393346 28,16.9393346 Z" id="Shape" stroke="#000000" stroke-width="2" fill="#000000"></path>
            </g>
        </g>
    </g>
</svg>
